X: 1
T: North Sydney Bar
M: 4/4
L: 1/8
R: reel
K: Cmaj
A|GEcG AdcA|GEce dcAc|GEcG ABca|gage c/c/c c:|
G|c2 ea gece|feaf gede|c2 ea gece|cAGE C/C/C CG|
c2 ea gece|feaf gede|cdea gece|cAGE C/C/C C|]
